web/src/assets/images/twitter.svg

<svg xmlns="http://www.w3.org/2000/svg" width="48" height="48" viewBox="0 0 48 48">
  <path fill="#FFF" d="M47,9.42375295 C45.3077397,10.1750891 43.4890857,10.6806607 41.5791483,10.9123806 C43.5241944,9.73973479 45.0268666,7.89299341 45.7290495,5.68814011 C43.903374,6.76950082 41.8810874,7.55594563 39.7324069,7.97725535 C38.0120593,6.14455852 35.5614416,5 32.8439934,5 C27.6337957,5 23.4066557,9.22714175 23.4066557,14.4373377 C23.4066557,15.1746311 23.4909176,15.8978781 23.6524202,16.5860182 C15.8090362,16.1927958 8.85742672,12.4290956 4.20195387,6.72034937 C3.38742174,8.11769192 2.92398195,9.73973479 2.92398195,11.4741269 C2.92398195,14.7462982 4.58815489,17.6322702 7.12303459,19.3245305 C5.57121091,19.275379 4.11769192,18.8540693 2.84674139,18.1448633 C2.84674139,18.1869951 2.84674139,18.2221038 2.84674139,18.2642357 C2.84674139,22.8354448 6.09784851,26.6482982 10.4162718,27.519005 C9.62280559,27.7366821 8.79423071,27.8490314 7.93054534,27.8490314 C7.31964579,27.8490314 6.72981219,27.7928567 6.15402314,27.6805075 C7.35475449,31.4231417 10.8375815,34.1616558 14.9664168,34.2318732 C11.7433987,36.7667529 7.67073813,38.2694251 3.24698517,38.2694251 C2.4816063,38.2694251 1.73729156,38.2272932 1,38.1430313 C5.17096712,40.8183493 10.1353986,42.3771944 15.464967,42.3771944 C32.8229275,42.3771944 42.3164398,27.9964893 42.3164398,15.532743 C42.3164398,15.1184564 42.3094185,14.7111895 42.2883525,14.3039243 C44.1350939,12.9838205 45.7360708,11.3196458 47,9.42375295"/>
</svg>

<svg xmlns="http://www.w3.org/2000/svg" viewBox="0 0 48 48"><path fill="#FFF" d="M47 9.424a18.957 18.957 0 01-5.42 1.488 9.49 9.49 0 004.149-5.224 18.901 18.901 0 01-5.997 2.29A9.42 9.42 0 0032.844 5c-5.21 0-9.437 4.227-9.437 9.437 0 .738.084 1.46.245 2.149-7.843-.393-14.795-4.157-19.45-9.866a9.402 9.402 0 00-1.278 4.754 9.421 9.421 0 004.199 7.85 9.357 9.357 0 01-4.276-1.18v.12c0 4.571 3.25 8.384 7.57 9.255a9.355 9.355 0 01-2.486.33c-.611 0-1.201-.056-1.777-.168 1.2 3.742 4.684 6.48 8.812 6.55A18.888 18.888 0 013.247 38.27c-.765 0-1.51-.042-2.247-.126a26.708 26.708 0 0014.465 4.234c17.358 0 26.851-14.38 26.851-26.844 0-.415-.007-.822-.028-1.23A18.877 18.877 0 0047 9.424"/></svg>
